public/svgs/light/file-plus.svg

<svg xmlns="http://www.w3.org/2000/svg" viewBox="0 0 384 512"><!-- Font Awesome Pro 6.0.0-alpha2 by @fontawesome - https://fontawesome.com License - https://fontawesome.com/license (Commercial License) --><path d="M208 255.998C208 247.16 200.836 240 192 240S176 247.16 176 255.998V320.002H112C103.16 320.002 96 327.162 96 336C96 344.834 103.156 351.998 112 351.998H176V416.002C176 424.836 183.156 432 192 432C200.836 432 208 424.84 208 416.002V351.998H272C280.84 351.998 288 344.838 288 336S280.84 320.002 272 320.002H208V255.998ZM365.258 125.254L258.746 18.746C246.742 6.742 230.465 0 213.492 0H64C28.656 0 0 28.654 0 64V448C0 483.346 28.656 512 64 512H320C355.348 512 384 483.346 384 448V170.51C384 153.535 377.258 137.258 365.258 125.254ZM224 34.076C228.477 35.643 232.664 37.922 236.117 41.375L342.625 147.879C346.078 151.332 348.359 155.523 349.922 160H240C231.188 160 224 152.828 224 144V34.076ZM352 448C352 465.645 337.645 480 320 480H64C46.355 480 32 465.645 32 448V64C32 46.355 46.355 32 64 32H192V144C192 170.469 213.531 192 240 192H352V448Z"/></svg>

<svg xmlns="http://www.w3.org/2000/svg" viewBox="0 0 384 512"><!--! Font Awesome Pro 6.5.1 by @fontawesome - https://fontawesome.com License - https://fontawesome.com/license (Commercial License) Copyright 2023 Fonticons, Inc. --><path d="M320 480H64c-17.7 0-32-14.3-32-32V64c0-17.7 14.3-32 32-32H192V144c0 26.5 21.5 48 48 48H352V448c0 17.7-14.3 32-32 32zM240 160c-8.8 0-16-7.2-16-16V32.5c2.8 .7 5.4 2.1 7.4 4.2L347.3 152.6c2.1 2.1 3.5 4.6 4.2 7.4H240zM64 0C28.7 0 0 28.7 0 64V448c0 35.3 28.7 64 64 64H320c35.3 0 64-28.7 64-64V163.9c0-12.7-5.1-24.9-14.1-33.9L254.1 14.1c-9-9-21.2-14.1-33.9-14.1H64zM176 416c0 8.8 7.2 16 16 16s16-7.2 16-16V352h64c8.8 0 16-7.2 16-16s-7.2-16-16-16H208V256c0-8.8-7.2-16-16-16s-16 7.2-16 16v64H112c-8.8 0-16 7.2-16 16s7.2 16 16 16h64v64z"/></svg>
